X: 53
T:Mary Richard's Jig
M:6/8
L:1/8
Q:120
R:Jig
A:Wales
N:Unnamed Jig from Mary Richards' (1787-1877) Collection.  B.M.
N:    .
Z:brian_martin12345@yahoo.com
K:D
D|DFA FAF|dcB AFA|def edc|BGFE2F|DFA FAF|!
dcB AFA|def egf|edcd2:||d|dfa d'c'b|abg fed|!
cde efe|dcBA2d|dfa d'c'b|abg fed|cde faf|edcd2:||
